usr/share/icons/biglinux-icons-material/scalable/apps/preferences-system-time.svg

<?xml version="1.0" encoding="UTF-8" standalone="no"?>
<svg
   width="24"
   height="24"
   viewBox="0 0 24 24"
   fill="none"
   version="1.1"
   id="svg8"
   sodipodi:docname="timeset-gui-icon.svg"
   inkscape:version="1.3 (0e150ed6c4, 2023-07-21)"
   xmlns:inkscape="http://www.inkscape.org/namespaces/inkscape"
   xmlns:sodipodi="http://sodipodi.sourceforge.net/DTD/sodipodi-0.dtd"
   xmlns:xlink="http://www.w3.org/1999/xlink"
   xmlns="http://www.w3.org/2000/svg"
   xmlns:svg="http://www.w3.org/2000/svg">
  <sodipodi:namedview
     id="namedview8"
     pagecolor="#ffffff"
     bordercolor="#000000"
     borderopacity="0.25"
     inkscape:showpageshadow="2"
     inkscape:pageopacity="0.0"
     inkscape:pagecheckerboard="0"
     inkscape:deskcolor="#d1d1d1"
     inkscape:zoom="16.895833"
     inkscape:cx="-0.11837238"
     inkscape:cy="12.754624"
     inkscape:window-width="2560"
     inkscape:window-height="998"
     inkscape:window-x="0"
     inkscape:window-y="0"
     inkscape:window-maximized="1"
     inkscape:current-layer="svg8" />
  <path
     fill-rule="evenodd"
     clip-rule="evenodd"
     d="M9.59604 1.11359C9.71588 1.11486 9.83043 1.0996 9.93969 1.06779C11.3755 0.973736 12.8111 0.977551 14.2467 1.07924C15.5484 1.18066 16.8085 1.46308 18.0269 1.9265C20.0525 2.76044 21.4386 4.2069 22.185 6.26586C22.6119 7.50549 22.8639 8.78021 22.9411 10.09C23.0478 11.7347 23.0096 13.3758 22.8265 15.0133C22.6895 16.1642 22.3916 17.271 21.933 18.3336C21.0824 20.1761 19.704 21.447 17.7978 22.1463C16.2531 22.6682 14.6647 22.943 13.0325 22.9706C11.1966 23.0661 9.37913 22.9287 7.57997 22.5585C4.26839 21.8208 2.22559 19.8018 1.45158 16.5017C1.12311 15.0161 0.974199 13.5124 1.00483 11.9906C0.968176 10.3724 1.14 8.77709 1.52031 7.20471C2.33171 4.11908 4.2905 2.20701 7.39669 1.46852C8.12048 1.29157 8.8536 1.17326 9.59604 1.11359Z"
     fill="url(#paint0_radial_1_75)"
     id="path1" />
  <path
     d="M8.94444 2.83341C7.92878 2.83341 7.11111 3.65108 7.11111 4.66674V5.73802C8.50756 4.6478 10.2284 4.05562 12 4.05563C13.7717 4.0558 15.4925 4.64819 16.8889 5.73863V4.66674C16.8889 3.65108 16.0712 2.83341 15.0556 2.83341H8.94444ZM7.11111 18.2615V19.3334C7.11111 20.3491 7.92878 21.1667 8.94444 21.1667H15.0556C16.0712 21.1667 16.8889 20.3491 16.8889 19.3334V18.2621C15.4924 19.3524 13.7716 19.9445 12 19.9445C10.2283 19.9444 8.50748 19.352 7.11111 18.2615Z"
     fill="url(#paint1_linear_1_75)"
     id="path2" />
  <path
     opacity="0.9"
     d="M11.9993 19.9438C16.3869 19.9438 19.9437 16.387 19.9437 11.9994C19.9437 7.61189 16.3869 4.05508 11.9993 4.05508C7.61181 4.05508 4.055 7.61189 4.055 11.9994C4.055 16.387 7.61181 19.9438 11.9993 19.9438Z"
     fill="#F9F9F9"
     id="path3" />
  <path
     d="M12.2165 11.9971L16.9699 16.7506L16.7528 16.9665L11.9993 12.2131L12.2165 11.9971Z"
     fill="#4D4D4D"
     id="path4" />
  <path
     d="M11.6945 7.1074V11.996C11.6954 12.0765 11.728 12.1535 11.7853 12.2101C11.8426 12.2668 11.9199 12.2985 12.0005 12.2985C12.0407 12.2985 12.0805 12.2906 12.1176 12.2752C12.1548 12.2599 12.1885 12.2373 12.2169 12.2089C12.2453 12.1805 12.2679 12.1467 12.2833 12.1096C12.2986 12.0725 12.3065 12.0327 12.3065 11.9925C12.3065 11.9844 12.3061 11.9763 12.3054 11.9683V7.1074H11.6945Z"
     fill="#4D4D4D"
     id="path5" />
  <defs
     id="defs8">
    <pattern
       id="pattern0"
       patternContentUnits="objectBoundingBox"
       width="1"
       height="1">
      <use
         xlink:href="#image0_1_75"
         transform="scale(0.0238095 0.0192308)"
         id="use5" />
    </pattern>
    <radialGradient
       id="paint0_radial_1_75"
       cx="0"
       cy="0"
       r="1"
       gradientUnits="userSpaceOnUse"
       gradientTransform="translate(12 1) rotate(90) scale(11)">
      <stop
         stop-color="#FAFAFA"
         id="stop5" />
      <stop
         offset="1"
         stop-color="#D0D0D0"
         id="stop6" />
    </radialGradient>
    <linearGradient
       id="paint1_linear_1_75"
       x1="12"
       y1="2.83341"
       x2="12"
       y2="21.1667"
       gradientUnits="userSpaceOnUse">
      <stop
         stop-color="#777777"
         id="stop7" />
      <stop
         offset="1"
         stop-color="#444444"
         id="stop8" />
    </linearGradient>
    <image
       id="image0_1_75"
       width="42"
       height="52"
       xlink:href="data:image/png;base64,iVBORw0KGgoAAAANSUhEUgAAACoAAAA0CAYAAAD8H6qwAAACjElEQVRoQ+2aXWvbMBSGz5HklLbETmJDh/cBu1h3scvt//+D3u2m3cVgg2x0ThwnZKOOpDNOiEMI+ZDK2iRDgkDAr6TXj6Rz4VcIj2y9Xi/WWl9FUdTRWreFEJeI2AIAtRhSE1FtrZ0qpSaz2axUSt0Ph8PxY6ZEn05JknQB4C0ivkHEc5++jZaIfhPRdwD4WlVV6TqGk9E0TV8S0QciSl0HdtEh4kAI8bkoiv4+/U6jcRz3lFIfFwadXmrfhBuekxCi0Frf7CK8bXKRpul7Y8w7IcQZEUkAeDKjiGistQ9SyrvBYHAHAHb9hTZN3up2u9dCiBfGmEshROuZjNZSyqm19mdZlmy2XjW7bjRKkuS1Uor3YnIIowBQaa2HVVXxgVuaXTUq2+12FxE7URTx6T6YUS5lRDSaTCZcFQyTbYxinufn4/GYlzo5BqPW2iqO42m/3/8DANQYVXmet47UKC+/ZqP8k0du1ASjHoWfFnV0Xp741PNhWtmjvPSBqAdQCER9aLloA1EXSj6aQNSHlos2EHWh5KMJRH1ouWgDURdKPppA1IeWizYQdaHkowlEfWi5aANRF0o+mkDUh5aLNhB1oeSjCUR9aLlo/z+i/NYn8SF3/on8VD6Ns9mTCBuaTc/xzSulVHbIVERrPVjEN7PG2LEGYrcAsDQ535tb6gdHjNfGGE7wni1iVErdFkXxxTViXHrvdDodKeUnay1vhSfLQq21vxDxZjQajbYVXqfJsyzLrbUcg7Phf9YQsVjE4D/2DepktBmECfPFAgDgiwUX+wbf9JwvFgDAN75YsIvgel8vo6udsyxr13V9xdkpAMRCiAtEPFu7qvFARFMimgBAGUXRfVEU/N+7/QW08YigAxdLSAAAAABJRU5ErkJggg==" />
  </defs>
</svg>

<svg xmlns="http://www.w3.org/2000/svg" xmlns:xlink="http://www.w3.org/1999/xlink" width="24" height="24" fill="none"><path fill="url(#a)" fill-rule="evenodd" d="M9.596 1.114c.12 0 .234-.014.344-.046a31.627 31.627 0 0 1 4.307.011c1.301.102 2.561.384 3.78.848 2.025.833 3.412 2.28 4.158 4.339.427 1.24.679 2.514.756 3.824a27.94 27.94 0 0 1-.114 4.923 11.88 11.88 0 0 1-.894 3.32c-.85 1.843-2.229 3.114-4.135 3.813a15.624 15.624 0 0 1-4.765.825 21.423 21.423 0 0 1-5.453-.413c-3.312-.737-5.354-2.756-6.128-6.056a19.047 19.047 0 0 1-.447-4.511 18.491 18.491 0 0 1 .515-4.786c.812-3.086 2.77-4.998 5.877-5.736a13.953 13.953 0 0 1 2.199-.355Z" clip-rule="evenodd"/><path fill="url(#b)" d="M8.944 2.833a1.83 1.83 0 0 0-1.833 1.834v1.071a7.945 7.945 0 0 1 9.778 0V4.668a1.83 1.83 0 0 0-1.833-1.834H8.944ZM7.111 18.262v1.071a1.83 1.83 0 0 0 1.833 1.834h6.112a1.83 1.83 0 0 0 1.833-1.834v-1.07a7.944 7.944 0 0 1-9.778-.002Z"/><path fill="#F9F9F9" d="M12 19.944a7.944 7.944 0 1 0 0-15.889 7.944 7.944 0 0 0 0 15.889Z" opacity=".9"/><path fill="#4D4D4D" d="m12.216 11.997 4.754 4.754-.217.215-4.754-4.753.217-.216Z"/><path fill="#4D4D4D" d="M11.694 7.107v4.889a.306.306 0 1 0 .611-.028v-4.86h-.61Z"/><defs><radialGradient id="a" cx="0" cy="0" r="1" gradientTransform="matrix(0 11 -11 0 12 1)" gradientUnits="userSpaceOnUse"><stop stop-color="#FAFAFA"/><stop offset="1" stop-color="#D0D0D0"/></radialGradient><linearGradient id="b" x1="12" x2="12" y1="2.833" y2="21.167" gradientUnits="userSpaceOnUse"><stop stop-color="#777"/><stop offset="1" stop-color="#444"/></linearGradient><image xlink:href="data:image/png;base64,iVBORw0KGgoAAAANSUhEUgAAACoAAAA0CAYAAAD8H6qwAAACjElEQVRoQ+2aXWvbMBSGz5HklLbETmJDh/cBu1h3scvt//+D3u2m3cVgg2x0ThwnZKOOpDNOiEMI+ZDK2iRDgkDAr6TXj6Rz4VcIj2y9Xi/WWl9FUdTRWreFEJeI2AIAtRhSE1FtrZ0qpSaz2axUSt0Ph8PxY6ZEn05JknQB4C0ivkHEc5++jZaIfhPRdwD4WlVV6TqGk9E0TV8S0QciSl0HdtEh4kAI8bkoiv4+/U6jcRz3lFIfFwadXmrfhBuekxCi0Frf7CK8bXKRpul7Y8w7IcQZEUkAeDKjiGistQ9SyrvBYHAHAHb9hTZN3up2u9dCiBfGmEshROuZjNZSyqm19mdZlmy2XjW7bjRKkuS1Uor3YnIIowBQaa2HVVXxgVuaXTUq2+12FxE7URTx6T6YUS5lRDSaTCZcFQyTbYxinufn4/GYlzo5BqPW2iqO42m/3/8DANQYVXmet47UKC+/ZqP8k0du1ASjHoWfFnV0Xp741PNhWtmjvPSBqAdQCER9aLloA1EXSj6aQNSHlos2EHWh5KMJRH1ouWgDURdKPppA1IeWizYQdaHkowlEfWi5aANRF0o+mkDUh5aLNhB1oeSjCUR9aLlo/z+i/NYn8SF3/on8VD6Ns9mTCBuaTc/xzSulVHbIVERrPVjEN7PG2LEGYrcAsDQ535tb6gdHjNfGGE7wni1iVErdFkXxxTViXHrvdDodKeUnay1vhSfLQq21vxDxZjQajbYVXqfJsyzLrbUcg7Phf9YQsVjE4D/2DepktBmECfPFAgDgiwUX+wbf9JwvFgDAN75YsIvgel8vo6udsyxr13V9xdkpAMRCiAtEPFu7qvFARFMimgBAGUXRfVEU/N+7/QW08YigAxdLSAAAAABJRU5ErkJggg==" id="c" width="42" height="52"/></defs></svg>
